static/logos/calendly-wordmark-color.svg

<svg width="100" height="25" viewBox="0 0 100 25" fill="none" xmlns="http://www.w3.org/2000/svg">
<g clip-path="url(#clip0_1_3313)">
<path d="M59.3543 9.52181C60.9052 9.52181 62.3739 10.4706 62.6839 12.5205H55.7768C56.0659 10.7217 57.4106 9.52181 59.3543 9.52181ZM62.4631 15.5534C61.9356 16.3757 60.916 17.0082 59.52 17.0082C57.5966 17.0082 56.1279 15.9538 55.7768 14.0923H64.4422C64.484 13.8255 64.5055 13.5559 64.5055 13.2859C64.5055 10.3909 62.4815 7.82605 59.3556 7.82605C56.1298 7.82605 53.9375 10.2043 53.9375 13.2656C53.9375 16.3649 56.1513 18.7052 59.4796 18.7052C61.5479 18.7052 63.1197 17.7742 64.0292 16.3649L62.4631 15.5534Z" fill="#006BFF"/>
<path d="M53.0879 3.33838H51.2891V18.4358H53.0879V3.33838Z" fill="#006BFF"/>
<path d="M74.5135 12.0866V18.4351H72.714V12.1897C72.714 10.4939 71.7425 9.54264 70.1498 9.54264C68.4951 9.54264 67.1511 10.5148 67.1511 12.955V18.4351H65.3516V8.09609H67.1511V9.58502C67.9164 8.3649 69.0536 7.82727 70.5034 7.82727C72.9227 7.82727 74.5154 9.44017 74.5154 12.0879" fill="#006BFF"/>
<path d="M84.4379 13.265C84.4379 11.1556 82.8453 9.56292 80.7567 9.56292C78.6884 9.56292 77.0964 11.1556 77.0964 13.265C77.0964 15.3744 78.6884 16.9671 80.7567 16.9671C82.844 16.9671 84.4379 15.3744 84.4379 13.265ZM86.2368 3.33838V18.4358H84.4379V16.6565C83.6106 17.9216 82.2874 18.7046 80.529 18.7046C77.6542 18.7046 75.2969 16.3257 75.2969 13.265C75.2969 10.2043 77.6542 7.82541 80.529 7.82541C82.2868 7.82541 83.6106 8.61099 84.4379 9.87285V3.33838H86.2368Z" fill="#006BFF"/>
<path d="M89.4864 3.33838H87.6875V18.4358H89.4864V3.33838Z" fill="#006BFF"/>
<path d="M48.0785 13.265C48.0785 11.1556 46.4865 9.56295 44.3973 9.56295C42.3297 9.56295 40.737 11.1556 40.737 13.265C40.737 15.3745 42.3297 16.9671 44.3973 16.9671C46.4846 16.9671 48.0785 15.3745 48.0785 13.265ZM49.878 8.09615V18.4352H48.0785V16.6566C47.2512 17.9216 45.928 18.7046 44.1703 18.7046C41.2955 18.7046 38.9375 16.3258 38.9375 13.265C38.9375 10.2043 41.2955 7.82544 44.1703 7.82544C45.928 7.82544 47.2512 8.61102 48.0785 9.87288V8.09615H49.878Z" fill="#006BFF"/>
<path d="M36.2695 16.4453C35.3485 16.7851 34.3543 16.8769 33.3867 16.7114C32.4191 16.5458 31.5119 16.1288 30.7563 15.5021C30.0007 14.8754 29.4231 14.0611 29.0814 13.1407C28.7398 12.2204 28.646 11.2264 28.8097 10.2584C28.9734 9.2905 29.3886 8.38259 30.0138 7.62573C30.639 6.8688 31.4522 6.28964 32.3719 5.94618C33.2916 5.60273 34.2853 5.50708 35.2536 5.66883C36.2219 5.83059 37.1307 6.24407 37.8887 6.86779C38.2048 7.12864 38.4908 7.42396 38.7413 7.74825L40.298 6.60973C39.3911 5.42421 38.1527 4.53462 36.7397 4.0537C35.3267 3.57279 33.8027 3.52221 32.361 3.90837C30.9191 4.29454 29.6245 5.10006 28.641 6.22285C27.6575 7.34565 27.0296 8.73515 26.8367 10.2152C26.6438 11.6953 26.8946 13.1993 27.5574 14.5367C28.2203 15.8741 29.2653 16.9845 30.5599 17.7273C31.8545 18.4701 33.3405 18.8118 34.8296 18.7092C36.3186 18.6064 37.7437 18.064 38.9241 17.1505L37.8881 15.5123C37.4041 15.911 36.8571 16.2263 36.2695 16.4453Z" fill="#006BFF"/>
<path d="M98.1705 8.09607V13.9645C98.1705 15.862 97.0668 17.0638 95.3817 17.0638C93.6967 17.0638 92.4766 15.862 92.4766 13.9645V8.09607H90.6562V13.7887C90.6562 16.7716 92.5152 18.7083 95.3817 18.7083C97.8612 18.7083 98.2483 17.1397 98.2483 17.1005V19.2118C98.2483 21.3035 97.3381 22.4851 95.4399 22.4851C94.7619 22.4884 94.106 22.2452 93.5936 21.8006C93.0819 21.3562 92.7486 20.7407 92.6569 20.0689L91.0294 20.6381C91.2622 21.6334 91.8251 22.5204 92.6272 23.1548C93.4285 23.7891 94.421 24.1334 95.4431 24.1315C98.3868 24.1315 99.9972 22.1941 99.9972 19.2118V8.09607H98.1705Z" fill="#006BFF"/>
<path d="M14.648 14.1195C13.9567 14.733 13.0933 15.4965 11.5279 15.4965H10.5917C9.45891 15.4965 8.42855 15.0847 7.69104 14.3383C6.97061 13.609 6.57403 12.6109 6.57403 11.5275V10.2466C6.57403 9.16313 6.97061 8.16502 7.69104 7.43574C8.42855 6.68938 9.45891 6.27824 10.5917 6.27824H11.5279C13.0952 6.27824 13.9567 7.04105 14.648 7.65459C15.3659 8.2871 15.9852 8.83991 17.6366 8.83991C17.8885 8.83985 18.14 8.81974 18.3887 8.77983L18.383 8.76528C18.2841 8.51961 18.168 8.28122 18.0358 8.05181L16.932 6.13972C16.4343 5.27776 15.7184 4.56199 14.8564 4.06436C13.9944 3.56673 13.0165 3.30477 12.0212 3.30481H9.81312C8.81773 3.30477 7.83994 3.56673 6.97789 4.06436C6.11588 4.56199 5.40003 5.27776 4.9023 6.13972L3.79857 8.05181C3.301 8.91385 3.03906 9.89172 3.03906 10.887C3.03906 11.8824 3.301 12.8602 3.79857 13.7223L4.9023 15.6343C5.40003 16.4963 6.11588 17.2121 6.97789 17.7097C7.83994 18.2073 8.81773 18.4693 9.81312 18.4693H12.0212C13.0165 18.4693 13.9944 18.2073 14.8564 17.7097C15.7184 17.2121 16.4343 16.4963 16.932 15.6343L18.0358 13.7254C18.168 13.496 18.2841 13.2576 18.383 13.012L18.3887 12.998C18.1401 12.9567 17.8886 12.9356 17.6366 12.9348C15.9852 12.9348 15.3659 13.4844 14.648 14.1201" fill="#006BFF"/>
<path d="M11.5275 7.43896H10.5914C8.8672 7.43896 7.73438 8.67046 7.73438 10.2467V11.5275C7.73438 13.1037 8.8672 14.3352 10.5914 14.3352H11.5275C14.0399 14.3352 13.8425 11.7736 17.6363 11.7736C17.9958 11.7732 18.3545 11.8062 18.7078 11.8722C18.8229 11.2206 18.8229 10.5537 18.7078 9.90196C18.3544 9.96768 17.9958 10.0007 17.6363 10.0006C13.8413 10.0006 14.0399 7.43896 11.5275 7.43896Z" fill="#006BFF"/>
<path d="M20.8848 12.8083C20.2388 12.3351 19.4937 12.0148 18.7058 11.8716C18.7058 11.8785 18.7058 11.8842 18.7058 11.8905C18.638 12.2682 18.532 12.638 18.3896 12.9943C19.0404 13.0951 19.658 13.3494 20.191 13.7362C20.191 13.7413 20.1878 13.7476 20.1859 13.7533C19.4998 15.9748 18.0397 17.8765 16.0707 19.113C14.1018 20.3495 11.7546 20.8387 9.45562 20.4918C7.15663 20.1449 5.05831 18.9849 3.54188 17.2224C2.02544 15.46 1.19147 13.2121 1.19147 10.8871C1.19147 8.56202 2.02544 6.31415 3.54188 4.55172C5.05831 2.78928 7.15663 1.62925 9.45562 1.28233C11.7546 0.935419 14.1018 1.42464 16.0707 2.66113C18.0397 3.89763 19.4998 5.79935 20.1859 8.02085C20.1859 8.02654 20.1891 8.03286 20.191 8.03792C19.658 8.42477 19.0404 8.67891 18.3896 8.77923C18.5319 9.13596 18.6378 9.50617 18.7058 9.88422C18.7055 9.89011 18.7055 9.89605 18.7058 9.90193C19.4937 9.75892 20.2387 9.43881 20.8848 8.96582C21.506 8.50598 21.3858 7.98669 21.2915 7.67929C20.5236 5.18854 18.8876 3.05593 16.6807 1.669C14.474 0.282064 11.8428 -0.267148 9.26542 0.121158C6.68806 0.509464 4.33551 1.80952 2.63529 3.78508C0.935066 5.76065 0 8.28062 0 10.8871C0 13.4935 0.935066 16.0135 2.63529 17.989C4.33551 19.9646 6.68806 21.2647 9.26542 21.653C11.8428 22.0413 14.474 21.4921 16.6807 20.1052C18.8876 18.7182 20.5236 16.5856 21.2915 14.0948C21.3858 13.7874 21.506 13.2682 20.8848 12.8083Z" fill="#006BFF"/>
<path d="M18.385 8.7792C18.1364 8.82051 17.8849 8.84163 17.6329 8.84245C15.9814 8.84245 15.3622 8.2928 14.6449 7.65713C13.953 7.04359 13.0915 6.28015 11.5241 6.28015H10.588C9.45456 6.28015 8.42483 6.69192 7.68733 7.43828C6.9669 8.16756 6.57031 9.16567 6.57031 10.2492V11.53C6.57031 12.6135 6.9669 13.6116 7.68733 14.3409C8.42483 15.0872 9.45456 15.4984 10.588 15.4984H11.5241C13.0915 15.4984 13.953 14.7356 14.6449 14.122C15.3622 13.4895 15.9814 12.9367 17.6329 12.9367C17.8848 12.9368 18.1363 12.9569 18.385 12.9968C18.5277 12.6406 18.6337 12.2708 18.7012 11.8931C18.7016 11.8867 18.7016 11.8804 18.7012 11.8741C18.3479 11.8086 17.9892 11.7757 17.6298 11.776C13.8347 11.776 14.0333 14.3383 11.521 14.3383H10.5849C8.86063 14.3383 7.72781 13.1062 7.72781 11.53V10.2466C7.72781 8.67041 8.86063 7.43891 10.5849 7.43891H11.521C14.0333 7.43891 13.836 9.99995 17.6298 9.99995C17.9892 10.0006 18.3479 9.96775 18.7012 9.90191C18.7012 9.89622 18.7012 9.89052 18.7012 9.8842C18.6332 9.50615 18.5273 9.13594 18.385 8.7792Z" fill="#0AE8F0"/>
<path d="M18.385 8.7792C18.1364 8.82051 17.8849 8.84163 17.6329 8.84245C15.9814 8.84245 15.3622 8.2928 14.6449 7.65713C13.953 7.04359 13.0915 6.28015 11.5241 6.28015H10.588C9.45456 6.28015 8.42483 6.69192 7.68733 7.43828C6.9669 8.16756 6.57031 9.16567 6.57031 10.2492V11.53C6.57031 12.6135 6.9669 13.6116 7.68733 14.3409C8.42483 15.0872 9.45456 15.4984 10.588 15.4984H11.5241C13.0915 15.4984 13.953 14.7356 14.6449 14.122C15.3622 13.4895 15.9814 12.9367 17.6329 12.9367C17.8848 12.9368 18.1363 12.9569 18.385 12.9968C18.5277 12.6406 18.6337 12.2708 18.7012 11.8931C18.7016 11.8867 18.7016 11.8804 18.7012 11.8741C18.3479 11.8086 17.9892 11.7757 17.6298 11.776C13.8347 11.776 14.0333 14.3383 11.521 14.3383H10.5849C8.86063 14.3383 7.72781 13.1062 7.72781 11.53V10.2466C7.72781 8.67041 8.86063 7.43891 10.5849 7.43891H11.521C14.0333 7.43891 13.836 9.99995 17.6298 9.99995C17.9892 10.0006 18.3479 9.96775 18.7012 9.90191C18.7012 9.89622 18.7012 9.89052 18.7012 9.8842C18.6332 9.50615 18.5273 9.13594 18.385 8.7792Z" fill="#0AE8F0"/>
</g>
<defs>
<clipPath id="clip0_1_3313">
<rect width="100" height="24.1619" fill="white"/>
</clipPath>
</defs>
</svg>

<svg xmlns="http://www.w3.org/2000/svg" width="256" height="64" fill="none" viewBox="0 0 100 25"><g clip-path="url(#a)"><path fill="#006BFF" d="M59.354 9.522c1.551 0 3.02.949 3.33 2.998h-6.907c.289-1.798 1.634-2.998 3.577-2.998Zm3.11 6.031c-.528.823-1.548 1.455-2.944 1.455-1.923 0-3.392-1.054-3.743-2.916h8.665a5.21 5.21 0 0 0 .064-.806c0-2.895-2.025-5.46-5.15-5.46-3.226 0-5.419 2.378-5.419 5.44 0 3.099 2.214 5.44 5.543 5.44 2.068 0 3.64-.932 4.55-2.341l-1.567-.812ZM53.088 3.338h-1.799v15.098h1.799V3.338ZM74.513 12.087v6.348h-1.799V12.19c0-1.696-.971-2.647-2.564-2.647-1.655 0-2.999.972-2.999 3.412v5.48h-1.8V8.096h1.8v1.489c.765-1.22 1.903-1.758 3.352-1.758 2.42 0 4.012 1.613 4.012 4.26M84.438 13.265c0-2.11-1.593-3.702-3.681-3.702-2.069 0-3.66 1.593-3.66 3.702 0 2.11 1.591 3.702 3.66 3.702 2.087 0 3.68-1.593 3.68-3.702Zm1.799-9.927v15.098h-1.8v-1.78c-.826 1.266-2.15 2.049-3.908 2.049-2.875 0-5.232-2.38-5.232-5.44 0-3.06 2.357-5.44 5.232-5.44 1.758 0 3.082.786 3.909 2.048V3.338h1.799ZM89.486 3.338h-1.799v15.098h1.8V3.338ZM48.078 13.265c0-2.11-1.592-3.702-3.68-3.702-2.068 0-3.661 1.593-3.661 3.702 0 2.11 1.593 3.702 3.66 3.702 2.088 0 3.681-1.592 3.681-3.702Zm1.8-5.169v10.34h-1.8v-1.78c-.827 1.266-2.15 2.049-3.908 2.049-2.875 0-5.233-2.38-5.233-5.44 0-3.06 2.358-5.44 5.233-5.44 1.758 0 3.081.786 3.908 2.048V8.096h1.8Z"/><path fill="#006BFF" d="M36.27 16.445a5.6 5.6 0 1 1 1.619-9.577c.316.26.602.556.852.88l1.557-1.138a7.538 7.538 0 1 0-1.374 10.54l-1.036-1.638a5.648 5.648 0 0 1-1.618.933ZM98.17 8.096v5.868c0 1.898-1.103 3.1-2.788 3.1-1.685 0-2.905-1.202-2.905-3.1V8.096h-1.82v5.693c0 2.983 1.858 4.92 4.725 4.92 2.48 0 2.866-1.57 2.866-1.608v2.11c0 2.093-.91 3.274-2.808 3.274a2.796 2.796 0 0 1-2.783-2.416l-1.628.57a4.521 4.521 0 0 0 4.414 3.492c2.944 0 4.554-1.937 4.554-4.92V8.097h-1.826ZM14.648 14.12c-.691.613-1.555 1.377-3.12 1.377h-.936c-1.133 0-2.163-.412-2.901-1.159-.72-.729-1.117-1.727-1.117-2.81v-1.281c0-1.084.397-2.082 1.117-2.811.738-.747 1.768-1.158 2.9-1.158h.937c1.567 0 2.429.763 3.12 1.377.718.632 1.337 1.185 2.989 1.185.252 0 .503-.02.752-.06l-.006-.015a5.67 5.67 0 0 0-.347-.713L16.932 6.14a5.67 5.67 0 0 0-4.91-2.835H9.812a5.67 5.67 0 0 0-4.91 2.835L3.798 8.052a5.672 5.672 0 0 0 0 5.67l1.103 1.912a5.67 5.67 0 0 0 4.911 2.835h2.208a5.671 5.671 0 0 0 4.911-2.835l1.104-1.909c.132-.229.248-.467.347-.713l.006-.014a4.68 4.68 0 0 0-.752-.063c-1.652 0-2.271.55-2.989 1.185"/><path fill="#006BFF" d="M11.527 7.439h-.936c-1.724 0-2.857 1.231-2.857 2.808v1.28c0 1.577 1.133 2.808 2.857 2.808h.937c2.512 0 2.314-2.561 6.108-2.561a5.8 5.8 0 0 1 1.072.098 5.664 5.664 0 0 0 0-1.97 5.851 5.851 0 0 1-1.072.099c-3.795 0-3.596-2.562-6.108-2.562Z"/><path fill="#006BFF" d="M20.885 12.808a5.287 5.287 0 0 0-2.18-.936v.018a5.677 5.677 0 0 1-.315 1.104c.65.101 1.268.355 1.801.742 0 .005-.003.012-.005.017a9.714 9.714 0 1 1 0-5.732c0 .006.003.012.005.017a4.14 4.14 0 0 1-1.801.741c.142.357.248.727.316 1.105v.018a5.287 5.287 0 0 0 2.179-.936c.621-.46.5-.98.406-1.287a10.887 10.887 0 1 0 0 6.416c.095-.308.215-.827-.406-1.287Z"/><path fill="#0AE8F0" d="M18.385 8.78a4.68 4.68 0 0 1-.752.062c-1.652 0-2.27-.55-2.988-1.185-.692-.613-1.553-1.377-3.12-1.377h-.937c-1.133 0-2.163.412-2.9 1.158-.721.73-1.118 1.728-1.118 2.811v1.281c0 1.084.397 2.082 1.117 2.81.738.747 1.768 1.158 2.901 1.158h.936c1.568 0 2.429-.762 3.12-1.376.718-.633 1.337-1.185 2.989-1.185.252 0 .503.02.752.06.143-.356.249-.726.316-1.104a.15.15 0 0 0 0-.019 5.851 5.851 0 0 0-1.071-.098c-3.795 0-3.597 2.562-6.109 2.562h-.936c-1.724 0-2.857-1.232-2.857-2.808v-1.283c0-1.577 1.133-2.808 2.857-2.808h.936c2.512 0 2.315 2.561 6.109 2.561.36 0 .718-.032 1.071-.098v-.018a5.711 5.711 0 0 0-.316-1.105Z"/><path fill="#0AE8F0" d="M18.385 8.78a4.68 4.68 0 0 1-.752.062c-1.652 0-2.27-.55-2.988-1.185-.692-.613-1.553-1.377-3.12-1.377h-.937c-1.133 0-2.163.412-2.9 1.158-.721.73-1.118 1.728-1.118 2.811v1.281c0 1.084.397 2.082 1.117 2.81.738.747 1.768 1.158 2.901 1.158h.936c1.568 0 2.429-.762 3.12-1.376.718-.633 1.337-1.185 2.989-1.185.252 0 .503.02.752.06.143-.356.249-.726.316-1.104a.15.15 0 0 0 0-.019 5.851 5.851 0 0 0-1.071-.098c-3.795 0-3.597 2.562-6.109 2.562h-.936c-1.724 0-2.857-1.232-2.857-2.808v-1.283c0-1.577 1.133-2.808 2.857-2.808h.936c2.512 0 2.315 2.561 6.109 2.561.36 0 .718-.032 1.071-.098v-.018a5.711 5.711 0 0 0-.316-1.105Z"/></g><defs><clipPath id="a"><path fill="#fff" d="M0 0h100v24.162H0z"/></clipPath></defs></svg>
